!!!COM: Beethoven, Ludwig van
!!!CDT: 1770///-1827///
!!!ODT: 1825///-1826///
!!!OTL: String Quartet No. 13 in B-flat Major, Op. 130
!!!OPS: Op. 130
!!!OMV: Mvmt. 5
!!!OMD: Cavatina: Adagio molto espressivo
!!!PDT: 1827///
!!!PPP: Vienna
!!!ODE: Dem F&uuml;rsten Nicolaus von Galitzin gewindmet
!!!MPD: 1826/03/21/
!!!MPD: 1827/04/22/
**kern	**dynam	**kern	**dynam	**kern	**dynam	**kern	**dynam
*staff4	*staff4	*staff3	*staff3	*staff2	*staff2	*staff1	*staff1
*Icello	*Icello	*Iviola	*Iviola	*Ivioln	*Ivioln	*Ivioln	*Ivioln
*clefF4	*clefF4	*clefC3	*clefC3	*clefG2	*clefG2	*clefG2	*clefG2
*k[b-e-a-]	*k[b-e-a-]	*k[b-e-a-]	*k[b-e-a-]	*k[b-e-a-]	*k[b-e-a-]	*k[b-e-a-]	*k[b-e-a-]
*E-:	*E-:	*E-:	*E-:	*E-:	*E-:	*E-:	*E-:
*M3/4	*M3/4	*M3/4	*M3/4	*M3/4	*M3/4	*M3/4	*M3/4
*MM60	*MM60	*MM60	*MM60	*MM60	*MM60	*MM60	*MM60
=1-	=1-	=1-	=1-	=1-	=1-	=1-	=1-
(4EE-/	Xp	(2G/	Xp	(8g/L	Xp	4r	Xp
.	.	.	.	8b-/	.	.	.
4EEn/	.	.	.	8cc/	.	4r	.
.	.	.	.	8b-/	.	.	.
8FF/L	.	8F/L	.	8a-/	.	(8.B-/L	.
8BB-/J)	.	8D/J)	.	8f/J)	.	.	.
.	.	.	.	.	.	16g/Jk)	.
=2	=2	=2	=2	=2	=2	=2	=2
(8E-/L	p	(4E-/	p	4B-/	p	(4.g/	p
8EE-/J	.	.	.	.	.	.	.
4FF/	.	4D/	.	4B-/	.	.	.
.	.	.	.	.	.	8a-/	.
4GG/)	.	4E-/)	.	4B-/	.	8b-/L	.
.	.	.	.	.	.	16a-/L	.
.	.	.	.	.	.	16g/JJ)	.
=3	=3	=3	=3	=3	=3	=3	=3
4.AA-/	.	(8C/L	.	8c/L	.	(16g/LK	.
.	.	.	.	.	.	8.f/J)	.
.	.	8G/J	.	(8bn/	.	.	.
.	.	4F/	.	8dd/	.	4r	.
8AA-/L	.	.	.	8cc/	.	.	.
(8AA-/	.	8C/L	.	8a-/	.	4r	.
8AAn/J)	.	8E-/J)	.	8g/J)	.	.	.
=4	=4	=4	=4	=4	=4	=4	=4
*^	*	*	*	*	*	*	*
[2BB-/	(4BB-\	.	(8D/L	.	(4f/	.	(4.f/	.
.	.	.	8B-/J)	.	.	.	.	.
.	4EE-\	.	4B-/	.	4e-/	.	.	.
.	.	.	.	.	.	.	8g/	.
8BB-/]	8FF\L	.	4B-/	.	4d/)	.	8a-/L	.
8ryy	8AA-\J)	.	.	.	.	.	16g/L	.
.	.	.	.	.	.	.	16f/JJ)	.
*v	*v	*	*	*	*	*	*	*
=5	=5	=5	=5	=5	=5	=5	=5
(4GG/	.	(4B-/	.	(4e-/	.	(4b-\	.
4FF/	.	4A-/	.	4B-/)	.	4dd\	.
4EE-/	.	4G/	.	4B-/	.	4ee-\	.
=6	=6	=6	=6	=6	=6	=6	=6
4DD/	.	4F/)	.	(8B-/L	.	4ff\	.
.	.	.	.	8f/J	.	.	.
4BBn/	.	(4F/	.	4d/	.	4.a-/	.
4C/)	.	4E-/)	.	4e-/)	.	.	.
.	.	.	.	.	.	8g/)	.
=7	=7	=7	=7	=7	=7	=7	=7
(4AA-/	p	(4F/	p	(4.c/	p	(8g/L	p
.	.	.	.	.	.	8f/	.
4EEn/	.	8G/L	.	.	.	8cc/	.
.	.	8c/)	.	8g/L	.	8b-/	.
8FF/L	.	(8c/	.	8f/	.	8a-/	.
8GG/J)	.	8B-/J)	.	8e-/J)	.	8g/J)	.
=8	=8	=8	=8	=8	=8	=8	=8
4BB-/	.	(2E-/	.	[4e-/	.	(8g/	.
.	.	.	.	.	.	4b-/	.
*^	*	*	*	*	*	*	*
2BB-/	(4CC\	.	.	.	(8e-/L]	.	.	.
.	.	.	.	.	&(8B-/J&)	.	8g/L	.
.	4DD\)	.	4F/)	.	4B-/)	.	8f/	.
.	.	.	.	.	.	.	8g/J)	.
*v	*v	*	*	*	*	*	*	*
=9	=9	=9	=9	=9	=9	=9	=9
4EE-/ 4BB-/	.	4G/	.	(8B-/	.	4e-/	.
.	.	.	.	4b-/	.	.	.
*^	*	*^	*	*	*	*	*
2BB-/	(4CC\	.	2B-/	(4E-\	.	.	.	4r	.
.	.	.	.	.	.	8g/L	.	.	.
.	4DD\)	.	.	4F\)	.	8f/	.	4r	.
.	.	.	.	.	.	8g/J)	.	.	.
*	*	*	*v	*v	*	*	*	*	*
=10	=10	=10	=10	=10	=10	=10	=10	=10
8BB-/	(8EE-\L	.	(8G/L 8B-/	.	(8e-/L	.	4r	.
3...ryy	8GG\	.	8E-/	.	8b-/	.	.	.
.	8AA-\	.	8D/	.	8cc/	.	4r	.
.	8GG\	.	8E-/	.	8b-/	.	.	.
.	8FF\	.	8D/	.	8a-/	.	(8.B-/L	.
.	8BB-\J)	.	8d/J)	.	8f/J)	.	.	.
.	.	.	.	.	.	.	16g/Jk)	.
*v	*v	*	*	*	*	*	*	*
=11	=11	=11	=11	=11	=11	=11	=11
(4EE-/	.	(8e-\L	.	8B-/ 8e-/	.	(4.g/	.
.	.	8E-/J	.	4B-/	.	.	.
4FF/	.	4D/	.	.	.	.	.
.	.	.	.	[8B-/	.	8a-/	.
4GG/)	.	4E-/)	.	4B-/]	.	8b-/L	.
.	.	.	.	.	.	16a-/L	.
.	.	.	.	.	.	16g/JJ)	.
=12	=12	=12	=12	=12	=12	=12	=12
(4GG/	.	(4D/	.	(4Bn/	.	(8g/	.
.	.	.	.	.	.	4f/)	.
4BBn/	.	4G/)	.	4d/	.	.	.
.	.	.	.	.	.	(8g'/	.
4C/)	.	4G/	.	4c/)	.	8e-'/L	.
.	.	.	.	.	.	8e-'/J)	.
=13	=13	=13	=13	=13	=13	=13	=13
4FF/	.	4A-/	.	4c/	.	(8e-/L	.
.	.	.	.	.	.	8d/J)	.
4GG/	.	4B-/	.	4c/	.	8r	.
.	.	.	.	.	.	8d/L	.
4GG/	.	4B-/	.	4c/	.	(8d/	.
.	.	.	.	.	.	8en/J)	.
=14	=14	=14	=14	=14	=14	=14	=14
(4AA-/	.	(4F/	.	(4c/	.	(8en/L	.
.	.	.	.	.	.	8f/J)	.
4AAn/	.	4C/)	.	4f/	.	8r	.
.	.	.	.	.	.	8cc\	.
4AA-/)	.	(8C/L	.	8f#/L	.	(8.cc/L	.
.	.	8D/J)	.	8c/J)	.	.	.
.	.	.	.	.	.	16f#/Jk)	.
=15	=15	=15	=15	=15	=15	=15	=15
4GG/	p	4E-/	p	4c/	p	4g/	p
2FF/	.	2E-/	.	2c/	.	2a-/	.
=16	=16	=16	=16	=16	=16	=16	=16
8GG/L	.	8E-/L	.	8c/L	.	4g/	p
(8GG/J	.	8E-/J 8c/	.	(8g/J	.	.	.
2FF/)	.	2E-/ 2c/	.	2a-/)	.	4r	.
.	.	.	.	.	.	4r	.
=17	=17	=17	=17	=17	=17	=17	=17
4GG/	p	(8E-/L	p	(8c/L	p	(4g/	.
.	.	8D/J)	.	8Bn/	.	.	.
4r	.	4r	.	8a-/	.	2bn/)	.
.	.	.	.	8g/	.	.	.
8GG/	.	8G/	.	8f/	.	.	.
8r	.	8r	.	8d/J)	.	.	.
=18	=18	=18	=18	=18	=18	=18	=18
8C/	.	(8G/L	.	4en/	.	(8.cc/L	.
8r	.	8c/	.	.	.	.	.
.	.	.	.	.	.	16en/Jk)	.
4r	.	8d-/	.	4r	.	2e/	.
.	.	8c/	.	.	.	.	.
8C/	.	8B-/	.	8c/	.	.	.
8r	.	8G/J)	.	8r	.	.	.
=19	=19	=19	=19	=19	=19	=19	=19
8F\	.	(8A-/L	.	8c/L	.	(4f/	.
8r	.	8An/J)	.	(8ff\	.	.	.
4r	.	4r	.	8gg-\	.	2an/)	.
.	.	.	.	8ff\	.	.	.
8F\	.	8f\	.	8ee-\	.	.	.
8r	.	8r	.	8cc\J)	.	.	.
=20	=20	=20	=20	=20	=20	=20	=20
8F\	.	8f\	.	8dd\	.	(4b-\	.
(8B-\L	.	8r	.	8r	.	.	.
8c\	.	8f\	.	8b-\	.	4.dd\	.
8B-\	.	8r	.	8r	.	.	.
8A-\	.	8f\	.	8b-\	.	.	.
8F\J)	.	8r	.	8r	.	16ee-\LL	.
.	.	.	.	.	.	16ff\JJ)	.
=21	=21	=21	=21	=21	=21	=21	=21
(8D/L	.	8f\	.	8b-\	.	8.ff\L	p
8BB-/	.	8r	.	8r	.	.	.
.	.	.	.	.	.	16a-\Jk	.
8C/	.	(8d/	.	(8f/	.	4a-/	.
*	*	*^	*	*	*	*	*
8BB-/	.	4f/	4.B-\	.	4dd\	.	.	.
8AA-/	.	.	.	.	.	.	4r	.
8FF/J)	.	16g/LL	.	.	16ee-\LL	.	.	.
.	.	16a-/JJ)	.	.	16ff\JJ)	.	.	.
*	*	*v	*v	*	*	*	*	*
=22	=22	=22	=22	=22	=22	=22	=22
8DD/L	p	(8.B-\L 8.a-\	p	(8.ff\L	p	2.r	.
[8D/	.	.	.	.	.	.	.
.	.	16F\Jk)	.	16a-\Jk)	.	.	.
(8D/]	.	(8F/L	.	4a-/	.	.	.
8C/)	.	8E-/)	.	.	.	.	.
(8C/	.	(8E-/	.	(8an/L	.	.	.
8BB-/J)	.	8D/J)	.	8b-/J)	.	.	.
=23	=23	=23	=23	=23	=23	=23	=23
(4GG/	.	(4E-/	.	(4b-/	.	2.r	.
4C/	.	4G/	.	4e-/	.	.	.
4AA-/)	.	4C/)	.	12b-/L	.	.	.
.	.	.	.	12a-/	.	.	.
.	.	.	.	12g/J)	.	.	.
=24	=24	=24	=24	=24	=24	=24	=24
4BB-/	.	4E-/	.	(8g/L	.	4r	.
.	.	.	.	8a-/J	.	.	.
4BB-/	.	(8E-/L	.	4f/)	.	4r	.
.	.	8F/J)	.	.	.	.	.
(8AA-/L	.	4D/	.	4B-/ 4f/	.	(8cc\L	.
8BB-/J)	.	.	.	.	.	8b-\J)	.
=25	=25	=25	=25	=25	=25	=25	=25
(4GG/	p	4E-/	p	(4B-/	p	(4b-/	p
4C/	.	4E-/	.	4G/	.	4e-/	.
4AA-/)	.	4E-/	.	4c/)	.	12b-/L	.
.	.	.	.	.	.	12a-/	.
.	.	.	.	.	.	12g/J)	.
=26	=26	=26	=26	=26	=26	=26	=26
4BB-/	.	(4E-/	.	(4B-/	.	(8g/L	.
.	.	.	.	.	.	16b-/L	.
.	.	.	.	.	.	16a-/JJ	.
4BB-/	.	8C/L	.	8e-/L	.	4f/)	.
.	.	8D/J)	.	8f/J	.	.	.
(8AA-/L	.	4F/	.	4B-/) 4f/	.	(8dd\L	.
8BB-/J)	.	.	.	.	.	16cc\L	.
.	.	.	.	.	.	16b-\JJ)	.
=27	=27	=27	=27	=27	=27	=27	=27
4GG/	f	4E-/ 4B-/	f	4e-/	f	(8b-/L	f
.	.	.	.	.	.	8e-/J)	.
(8BB-/L	.	4E-/ 4G/	.	4e-/	.	(4.gg\	.
8EE-/J)	.	.	.	.	.	.	.
4C/	.	4E-/ 4G/	.	4e-/	.	.	.
.	.	.	.	.	.	16ee-\LL	.
.	.	.	.	.	.	16bn\JJ)	.
=28	=28	=28	=28	=28	=28	=28	=28
4AA-/	.	4E-/ 4A-/	.	(8e-/L	.	(8bn\L	.
.	.	.	.	8c/J)	.	8cc\J)	.
4AA-/	.	(8E-/L	.	(8c/L	.	(8cc\L	.
.	.	8F/J)	.	8Bn/J)	.	8dd\J)	.
4AA-/	.	(8G/L	.	(8B/L	.	(8dd\L	.
.	.	8C/J)	.	8c/J)	.	8ee-\J)	.
=29	=29	=29	=29	=29	=29	=29	=29
4AAn/	p	(8C/L	p	(8c/L	p	(8ee-\L	p
.	.	8F/J	.	8e-/J)	.	16.cc\L	.
.	.	.	.	.	.	32g\JJk)	.
4BB-/	.	4G/	.	(8e-/L	.	(4g/	.
.	.	.	.	8B-/J	.	.	.
4BB-/	.	4F/)	.	4d/)	.	8b-/L	.
.	.	.	.	.	.	8a-/J)	.
=30	=30	=30	=30	=30	=30	=30	=30
(4EE-/	.	4F/	.	4d/	.	(8.a-/L	.
.	.	.	.	.	.	16b-/Jk)	.
4E-\	.	(8G/L	.	8e-/L	.	4g/	.
.	.	8B-/	.	(8g/	.	.	.
4BB-/)	.	8D/	.	8b-/	.	4r	.
.	.	8F/J) 8d/	.	8a-/J)	.	.	.
=31	=31	=31	=31	=31	=31	=31	=31
4EE-/	.	4F/ 4d/	.	(8.a-/L	.	2.r	.
.	.	.	.	16b-/Jk)	.	.	.
(4E-\	.	(4G/ 4e-/	.	8g/	.	.	.
.	.	.	.	4b-/	.	.	.
4F\)	.	4A-/) 4d/	.	.	.	.	.
.	.	.	.	8b-/	.	.	.
=32	=32	=32	=32	=32	=32	=32	=32
(8G\L	p	(4B-/ 4e-/	p	(4b-/	p	2.r	.
8GG/J	.	.	.	.	.	.	.
4C/	.	4G/	.	4e-/	.	.	.
4AA-/)	.	8F/L	.	8a-/L	.	.	.
.	.	8E-/J)	.	8g/J)	.	.	.
=33	=33	=33	=33	=33	=33	=33	=33
(4BB-/	.	4E-/	.	(8g/L	.	4r	.
.	.	.	.	8a-/J)	.	.	.
8C/L	.	(8E-/L	.	4f/	.	4r	.
8BB-/J)	.	8D/J)	.	.	.	.	.
4AA-/	.	4D/	.	4B-/ 4f/	.	(8cc\L	.
.	.	.	.	.	.	8b-\J)	.
=34	=34	=34	=34	=34	=34	=34	=34
(4GG/	p	4E-/	p	(4B-/ 4g/	p	(4b-/	p
4C/	.	4E-/	.	4G/	.	4e-/	.
.	.	.	.	.	.	fq/LLL	.
.	.	.	.	.	.	e-q/	.
.	.	.	.	.	.	dq/	.
.	.	.	.	.	.	e-q/JJJ	.
4AA-/)	.	4E-/	.	4c/	.	12b-/L	.
.	.	.	.	.	.	12a-/	.
.	.	.	.	.	.	12g/J)	.
=35	=35	=35	=35	=35	=35	=35	=35
(4BB-/	.	4E-/	.	4B-/	.	(8g/L	.
.	.	.	.	.	.	8a-/J)	.
4AAn/	.	(4E-/	.	4c/)	.	4f/	.
4AA-/)	.	4F/)	.	4B-/ 4d/	.	(8dd\L	.
.	.	.	.	.	.	16cc\L	.
.	.	.	.	.	.	16b-\JJ)	.
=36	=36	=36	=36	=36	=36	=36	=36
4GG/	f	4G/	f	4B-/ 4e-/	f	8b-/L	f
.	.	.	.	.	.	8e-/J	.
(8BB-/L	.	4E-/ 4G/	.	4e-/	.	(4.gg\	.
8EE-/J	.	.	.	.	.	.	.
4C/)	.	4E-/ 4G/	.	4e-/	.	.	.
.	.	.	.	.	.	16.ee-\LL	.
.	.	.	.	.	.	32bn\JJk)	.
=37	=37	=37	=37	=37	=37	=37	=37
*	*	*^	*	*	*	*	*
(4AA-/	p	4A-/	8E-\L	p	4c/	p	(8bn\L	p
.	.	.	8C\J	.	.	.	8cc\J)	.
*	*	*v	*v	*	*	*	*	*
4GG/	.	(8E-/L	.	(8c/L	.	(8cc\L	.
.	.	8F/J)	.	8Bn/J)	.	8dd\J)	.
4CC/)	.	(8F/L	.	(8B/L	.	(8dd\L	.
.	.	8E-/J)	.	8c/J)	.	8ee-\J)	.
=38	=38	=38	=38	=38	=38	=38	=38
4AAn/	p	(8E-/L	p	4c/ 4e-/	p	(8ee-\L	p
.	.	8F/J	.	.	.	16.cc\L	.
.	.	.	.	.	.	32g\JJk)	.
4BB-/	.	8G/L	.	8B-/L 8e-/	.	(4g/	.
.	.	8E-/J)	.	8B-/J	.	.	.
4BB-/	.	4D/	.	(8B-/L	.	8a-/L	.
.	.	.	.	8A-/J)	.	8f/J)	.
=39	=39	=39	=39	=39	=39	=39	=39
4.EE-/	.	(8D/L	.	(8A-/L	.	(8f/L	.
.	.	8E-/J)	.	8G/J)	.	8g/J	.
.	.	8E-/L	.	8G/L	.	4e-/)	.
*	*	*	*	*^	*	*	*
(8EE-/L	.	8A-/	.	8f/	8B-\	.	.	.
8DD/	.	(8A-/	.	(8f/	4B-\	.	4r	.
8EE-/J)	.	8G/J)	.	8g/J)	.	.	.	.
*	*	*	*	*v	*v	*	*	*
=40	=40	=40	=40	=40	=40	=40	=40
(12EE-'/L	pp	(12E-'/L	pp	(12e-'/L	pp	2.r	.
12EE-'/	.	12E-'/	.	12e-'/	.	.	.
12EE-'/J)	.	12E-'/J)	.	12e-'/J)	.	.	.
(12EE-'/L	.	(12E-'/L	.	(12e-'/L	.	.	.
12EE-'/	.	12E-'/	.	12e-'/	.	.	.
12EE-'/J)	.	12E-'/J)	.	12e-'/J)	.	.	.
(12EE-'/L	.	(12E-'/L	.	(12e-'/L	.	.	.
12EE-'/	.	12E-'/	.	12e-'/	.	.	.
12EE-'/J)	.	12E-'/J)	.	12e-'/J)	.	.	.
=41	=41	=41	=41	=41	=41	=41	=41
12DD-/L	.	12E-/L	.	12e-/L	.	4r	.
12DD-/	.	12E-/	.	12e-/	.	.	.
12DD-/J	.	12E-/J	.	12e-/J	.	.	.
12DD-/L	.	12E-/L	.	12e-/L	.	2g-/	.
12DD-/	.	12E-/	.	12e-/	.	.	.
12DD-/J	.	12E-/J	.	12e-/J	.	.	.
12DD-/L	.	12E-/L	.	12e-/L	.	.	.
12DD-/	.	12E-/	.	12e-/	.	.	.
12DD-/J	.	12E-/J	.	12e-/J	.	.	.
=42	=42	=42	=42	=42	=42	=42	=42
*MM112	*MM112	*MM112	*MM112	*MM112	*MM112	*MM112	*MM112
12C-/L	pp	12E-/L	pp	12e-/L	pp	[8g-/L	.
12C-/	.	12E-/	.	12g-/	.	.	.
.	.	.	.	.	.	16g-/L]	.
12C-/J	.	12E-/J	.	12g-/J	.	.	.
.	.	.	.	.	.	16cc-'/JJ	.
12C-/L	.	12E-/L	.	12g-/L	.	8r	.
12C-/	.	12E-/	.	12g-/	.	.	.
.	.	.	.	.	.	16.cc-'\LL	.
12C-/J	.	12E-/J	.	12g-/J	.	.	.
.	.	.	.	.	.	32dd-\JJk	.
12C-/L	.	12E-/L	.	12g-/L	.	8r	.
12C-/	.	12E-/	.	12g-/	.	.	.
.	.	.	.	.	.	8ee-\	.
12C-/J	.	12E-/J 12c-/	.	12g-/J	.	.	.
=43	=43	=43	=43	=43	=43	=43	=43
12FF-/L	.	12D-/L 12c-/	.	12a-/L	.	8r	.
12FF-/	.	12D-/ 12c-/	.	12a-/	.	.	.
.	.	.	.	.	.	8dd-\	.
12FF-/J	.	12D-/J 12c-/	.	12a-/J	.	.	.
12FF-/L	.	12D-/L 12c-/	.	12a-/L	.	8r	.
12FF-/	.	12D-/ 12c-/	.	12a-/	.	.	.
.	.	.	.	.	.	16.ff-'\LL	.
12FF-/J	.	12D-/J 12c-/	.	12a-/J	.	.	.
.	.	.	.	.	.	32gg-\JJk	.
12FF-/L	.	12D-/L 12c-/	.	12a-/L	.	8r	.
12FF-/	.	12D-/ 12c-/	.	12a-/	.	.	.
.	.	.	.	.	.	8aa-\	.
12FF-/J	.	12D-/J 12c-/	.	12a-/J	.	.	.
=44	=44	=44	=44	=44	=44	=44	=44
12GG-/L	.	12D-/L 12B-/	.	12d-/L	.	8r	.
12GG-/	.	12D-/ 12B-/	.	12d-/	.	.	.
.	.	.	.	.	.	[8aa-\	.
12GG-/J	.	12D-/J 12B-/	.	12d-/J	.	.	.
12GG-/L	.	12D-/L 12B-/	.	12d-/L	.	16aa-\LL]	.
.	.	.	.	.	.	(16a-\	.
12GG-/	.	12D-/ 12B-/	.	12d-/	.	.	.
.	.	.	.	.	.	16gn\JJ)	.
12GG-/J	.	12D-/J 12B-/	.	12d-/J	.	.	.
.	.	.	.	.	.	(16g-/LL	.
12GG-/L	.	12D-/L 12B-/	.	12d-/L	.	16f-/)	.
.	.	.	.	.	.	16f-/JJ	.
12GG-/	.	12D-/ 12B-/	.	12d-/	.	.	.
.	.	.	.	.	.	16r	.
12GG-/J	.	12D-/J 12B-/	.	12d-/J	.	.	.
.	.	.	.	.	.	16f-/	.
=45	=45	=45	=45	=45	=45	=45	=45
12GGn/L	p	12E-/L 12B-/	p	12d-/L 12e-/	p	16r	p
.	.	.	.	.	.	16e-/LK	.
12GG/	.	12E-/ 12B-/	.	12d-/ 12e-/	.	.	.
.	.	.	.	.	.	16r	.
12GG/J	.	12E-/J 12B-/	.	12d-/J 12e-/	.	.	.
.	.	.	.	.	.	16b-/Jk	.
12GG/L	.	12E-/L	.	12B-/L 12e-/	.	16r	.
.	.	.	.	.	.	(16b-\LL	.
12GG/	.	12E-/	.	12B-/ 12e-/	.	.	.
.	.	.	.	.	.	16ee-\	.
12GG/J	.	12E-/J	.	12B-/J 12e-/	.	.	.
.	.	.	.	.	.	16dd-\JJ)	.
12AA-/L	.	12E-/L	.	12c-/L 12e-/	.	(16dd-\LL	.
.	.	.	.	.	.	16b-\JJ)	.
12AA-/	.	12E-/	.	12c-/ 12e-/	.	.	.
.	.	.	.	.	.	16r	.
12AA-/J	.	12E-/J	.	12c-/J 12e-/	.	.	.
.	.	.	.	.	.	16cc-\	.
=46	=46	=46	=46	=46	=46	=46	=46
12GG/L	.	12E-/L	.	12B-/L 12e-/	.	16r	.
.	.	.	.	.	.	32e-/LLL	.
12GG/	.	12E-/	.	12B-/ 12e-/	.	.	.
.	.	.	.	.	.	32e-/JJJ	.
.	.	.	.	.	.	16r	.
12GG/J	.	12E-/J	.	12B-/J 12e-/	.	.	.
.	.	.	.	.	.	(32b-\LLL	.
.	.	.	.	.	.	32b-\JJJ)	.
12GG/L	.	12E-/L	.	12B-/L 12e-/	.	16r	.
.	.	.	.	.	.	(32ee-\LLL	.
12GG/	.	12E-/	.	12B-/ 12e-/	.	.	.
.	.	.	.	.	.	32ee-\JJJ)	.
.	.	.	.	.	.	16r	.
12GG/J	.	12E-/J	.	12B-/J 12e-/	.	.	.
.	.	.	.	.	.	(32dd-\LLL	.
.	.	.	.	.	.	32dd-\JJJ)	.
12AA-/L	.	12E-/L	.	12c-/L 12e-/	.	(16dd-\LK	.
.	.	.	.	.	.	8b-\	.
12AA-/	.	12E-/	.	12c-/ 12e-/	.	.	.
12AA-/J	.	12E-/J	.	12c-/J 12e-/	.	.	.
.	.	.	.	.	.	16cc-\Jk)	.
=47	=47	=47	=47	=47	=47	=47	=47
12AA-/L	.	12E-/L	.	12c-/L 12e-/	.	(8ee-/L	.
12EE-/	.	12E-/	.	12c-/ 12a-/	.	.	.
.	.	.	.	.	.	16cc-/L	.
12EE-/J	.	12E-/J	.	12A-/J	.	.	.
.	.	.	.	.	.	16g/JJ)	.
2FF-/	.	(4D-/	.	2A-/	.	2a-/	.
.	.	4d-\)	.	.	.	.	.
=48	=48	=48	=48	=48	=48	=48	=48
4EE-/	.	(8G/L	.	8B-/L	.	4b-\	.
.	.	8D-/J)	.	8gn/J	.	.	.
(4.FF-/	.	(4.D-/ 4.d-/	.	(4.a-/	.	4r	.
.	.	.	.	.	.	4r	.
8EE-/)	.	8G/)	.	8b-/)	.	.	.
=49	=49	=49	=49	=49	=49	=49	=49
(4EE-/	p	8G/	p	8b-/L	p	4r	.
.	.	4E-/ 4G/	.	(8b-/	.	.	.
4GG/	.	.	.	8ccn/	.	4r	.
.	.	(8En/L 8G/	.	8b-/	.	.	.
4BB-/)	.	8F/ 8A-/	.	8a-/	.	(8.B-/L	.
.	.	8F/J) 8dn/	.	8f/J)	.	.	.
.	.	.	.	.	.	16g/Jk)	.
=50	=50	=50	=50	=50	=50	=50	=50
(8E-\L	.	(4G/ 4e-/	.	4B-/	.	(4.g/	.
8EE-/J	.	.	.	.	.	.	.
4FFn/	.	4Dn/	.	4B-/	.	.	.
.	.	.	.	.	.	8a-/	.
4GG/)	.	4E-/)	.	4B-/	.	8b-/L	.
.	.	.	.	.	.	16a-/L	.
.	.	.	.	.	.	16g/JJ)	.
=51	=51	=51	=51	=51	=51	=51	=51
4.AA-/	.	(4.E-/	.	8cn/L	.	(16g/LK	.
.	.	.	.	.	.	8.f/J)	.
.	.	.	.	(8bn/	.	.	.
.	.	.	.	8dd/	.	4r	.
8AA-/	.	8En/	.	8cc/	.	.	.
(8AA-/L	.	8F/L	.	8a-/	.	4r	.
8AAn/J)	.	8E-/J)	.	8g/J)	.	.	.
=52	=52	=52	=52	=52	=52	=52	=52
(4BB-/	.	(4D/	.	4.B-/	.	(4.f/	.
4GG/	.	4E-/	.	.	.	.	.
.	.	.	.	4B-/	.	8g/	.
8FF/L	.	8D/L	.	.	.	8a-/L	.
8AA-/J)	.	8F/J)	.	8B-/	.	16g/L	.
.	.	.	.	.	.	16f/JJ)	.
=53	=53	=53	=53	=53	=53	=53	=53
(4GG/	.	(8E-/L	.	(8B-/L	.	(4b-\	.
.	.	8B-/J)	.	8e-/J	.	.	.
4FF/	.	4B-/	.	4a-/	.	4dd\	.
4EE-/	.	4B-/	.	4g/	.	4ee-\	.
=54	=54	=54	=54	=54	=54	=54	=54
4DD/	.	(8B-/L	.	4f/	.	4ff\	.
.	.	8F/J)	.	.	.	.	.
4BBn/	.	(4F/	.	4d/	.	4.a-/	.
4C/)	.	4E-/)	.	4e-/)	.	.	.
.	.	.	.	.	.	8g/)	.
=55	=55	=55	=55	=55	=55	=55	=55
(4AA-/	.	(4F/	.	(4.c/	.	(8g/L	.
.	.	.	.	.	.	8f/	.
4EEn/	.	4G/	.	.	.	8cc/	.
.	.	.	.	8g/L	.	8b-/	.
8FF/L	.	8c/L	.	8f/	.	8a-/	.
8GG/J)	.	8B-/J)	.	8e-/J)	.	8g/J)	.
=56	=56	=56	=56	=56	=56	=56	=56
4BB-/	.	(8B-/L	.	[4e-/	.	(8g/	.
.	.	8G/J	.	.	.	4b-/	.
*^	*	*	*	*	*	*	*
2BB-/	(4CC\	.	4E-/	.	8e-/L]	.	.	.
.	.	.	.	.	[8B-/J	.	8g/L	.
.	4DD\)	.	4F/)	.	4B-/]	.	8f/	.
.	.	.	.	.	.	.	8g/J)	.
*v	*v	*	*	*	*	*	*	*
=57	=57	=57	=57	=57	=57	=57	=57
4EE-/ 4BB-/	.	4G/	.	(8B-/	.	4e-/	.
.	.	.	.	4b-/	.	.	.
*^	*	*^	*	*	*	*	*
2BB-/	(4CC\	.	2B-/	(4E-\	.	.	.	4r	.
.	.	.	.	.	.	8g/L	.	.	.
.	4DD\)	.	.	4F\)	.	8f/	.	4b-\	.
.	.	.	.	.	.	8g/J)	.	.	.
*v	*v	*	*	*	*	*	*	*	*
*	*	*v	*v	*	*	*	*	*
=58	=58	=58	=58	=58	=58	=58	=58
8EE-/ 8BB-/	.	8G/L	.	2B-/	.	4.b-\	.
(8BB-/L	.	(8G/	.	.	.	.	.
8C/	.	8A-/	.	.	.	.	.
8BB-/	.	8G/	.	.	.	(8ee-\	.
8AA-/	.	8F/	.	4B-/	.	4ff\)	.
8FF/J)	.	8D/J)	.	.	.	.	.
=59	=59	=59	=59	=59	=59	=59	=59
(8EE-/L	.	(8E-/L	.	(8B-/L	.	4gg\	.
8E-/	.	8B-/	.	8g/	.	.	.
8D/	.	8c/	.	8a-/	.	8r	.
8E-/J)	.	8B-/	.	8g/	.	8ee-\	.
4BB-/	.	8A-/	.	8f/	.	4ff\	.
.	.	8D/J)	.	8A-/J)	.	.	.
=60	=60	=60	=60	=60	=60	=60	=60
8C/	p	8E-/	p	8e-/	p	(8a-/L	p
8r	.	8r	.	8r	.	8g/	.
8A-\	.	(4A-/	.	(8c/L	.	8f/	.
8r	.	.	.	8a-/	.	8cc/	.
*clefC4	*clefC4	*	*	*	*	*	*
4B-\	.	8B-/L	.	8g/	.	8b-/	.
.	.	8A-/J)	.	8f/J)	.	8dd/J)	.
=61	=61	=61	=61	=61	=61	=61	=61
4.B-\	.	8G/L	.	8e-/L	.	4.ee-\	.
.	.	(8G/	.	(8bb-\	.	.	.
.	.	8A-/	.	8ccc\	.	.	.
(8e-\	.	8G/	.	8bb-\	.	(8ee-\	.
4f\)	.	8F/	.	8aa-\	.	4dd\)	.
.	.	8B-/J)	.	8ff\J)	.	.	.
=62	=62	=62	=62	=62	=62	=62	=62
8g\	.	8E-/	.	8b-/	.	4.ee-\	.
*clefF4	*clefF4	*	*	*	*	*	*
(8GG/L	.	4B-/	.	(8b-/L	.	.	.
8AA-/	.	.	.	8cc/	.	.	.
8GG/	.	8B-/	.	8b-/	.	(16ee-\LL	.
.	.	.	.	.	.	16ff\JJ)	.
8FF/	.	(8B-/L	.	8a-/	.	4ff\	.
8DD/J)	.	8A-/J)	.	8f/J)	.	.	.
=63	=63	=63	=63	=63	=63	=63	=63
(8DD-/	.	(4G/	.	2e-/	.	4.b-\	.
4CC/	.	.	.	.	.	.	.
.	.	4E-/	.	.	.	.	.
8C-/	.	.	.	.	.	8a-/	.
4BB-/)	.	4F/)	.	4d/	.	12g/L	.
.	.	.	.	.	.	12a-/	.
.	.	.	.	.	.	12f/J	.
=64	=64	=64	=64	=64	=64	=64	=64
(4BB-/	p	(4F/	p	(4d/	p	(8f/L	p
.	.	.	.	.	.	8g/J	.
4E-\)	.	8G/L	.	8B-/L	.	4e-/)	.
.	.	8E-/J)	.	8g/J)	.	.	.
8r	.	(8E-/L	.	(8g/L	.	4r	.
(8B-\	.	16F/L	.	16a-/L	.	.	.
.	.	16D/JJ)	.	16f/JJ)	.	.	.
=65	=65	=65	=65	=65	=65	=65	=65
8A-\L	.	(8D/L	.	(8f/L	.	8.r	.
8G\	.	8E-/	.	8g/J)	.	.	.
.	.	.	.	.	.	(16e-/	.
8F\	.	8A-/	.	4e-/	.	4.ee-\	.
8G\)	.	8B-/J)	.	.	.	.	.
8E-\	.	8G/L	.	8B-/L	.	.	.
8E-\J	.	8G/J	.	8B-/J	.	8b-\)	.
=66	=66	=66	=66	=66	=66	=66	=66
4E-\	p	4G/	p	4B-/	p	(16a-/LK	.
.	.	.	.	.	.	[8.g/J)	.
[8EE-/L [8BB-/	.	[8E-/L [8G/	.	[8B-/L [8g/	.	8g/]	.
8EE-/J_ 8BB-/_	.	8E-/J_ 8G/_	.	8B-/J_ 8g/_	.	4r	.
8EE-/L_ 8BB-/_	.	8E-/L_ 8G/_	.	8B-/L_ 8g/_	.	.	.
8EE-;/J] 8BB-;/]	.	8E-;/J] 8G;/]	.	8B-;/J] 8g;/]	.	8r;	.
==	==	==	==	==	==	==	==
*-	*-	*-	*-	*-	*-	*-	*-
!!!ENC: Craig Stuart Sapp
!!!END: 2004/09/10/
